imgs/icon-arrow-back.svg

<svg height="24" viewBox="0 0 24 24" width="24" xmlns="http://www.w3.org/2000/svg"><path d="m18 11h-9.586l4.293-4.293-1.414-1.414-6.707 6.707 6.707 6.707 1.414-1.414-4.293-4.293h9.586z"/></svg>

<svg xmlns="http://www.w3.org/2000/svg" width="24" height="24" viewBox="0 0 24 24"><path d="M18 11L8.414 11 12.707 6.707 11.293 5.293 4.586 12 11.293 18.707 12.707 17.293 8.414 13 18 13z"/></svg>
